X: 20640
T: John Smeaton
R: reel
M: 4/4
K: Amixolydian
[M:3/4] Ac c/c/c Bc|Ac c/c/c ec|fecB ce|fa f2 ce-|[M:4/4] effA cBBB|
[M:3/4] Ac c/c/c Bc|Ac c/c/c ec|fecB ce|fa f2 ce-|[M:4/4] eAcB A4:|
f3 d dccB|eAAA cBce|effe a2 ef-|faaA cB B/B/B|
f3 d dccB|eAAA cBce|effe a2 ef-|fAcB A4:|

